X: 1
T: Nuala's Bonnet
M: 4/4
L: 1/8
R: reel
K: Ador
EA~A2 BA~A2|BA (3Bcd c2BA|~G3F GABc|(3ddd ec dBAG|
EA~A2 BA~A2|BA (3Bcd c2BA|~G3F GA (3Bcd|egdB BAAG:|
agef ~g2ed|B~G3 Bcda|agef ~g2ed|eaag ~a3b|
agef ~g2ed|eAAG EF~G2|E~A3 BA (3Bcd|egdB BAAG:|
